!!!!SEGMENT: pl-wtm--r-1513_stefani-jozef--ojcow.krn
!!!cenid: 18xx:2235
!!!COM: Stefani, Józef
!!!COM-rismID: pe30024097
!!!CDT: 1800/04/16-1876/03/19
!!!CNT: Polish
!!!OTL: Ojców
!!!PDT:
!!!AGN:
!!!SMS-siglum: PL-Wtm
!!!SMS-shelfmark: R 1513
!!!SMS-shelfwork: W
!!!SMS-variant:
!!!SMS-altvar:
!!!NIFC-rismSourceID: 1001120388
!!!NIFC-islandoraID: pl-wtm:26177
!!!URL-pdf-islandora: https://repozytorium.nifc.pl/islandora/object/pl-wtm%3A26177/datastream/PDF/view
!!!URL-scan: https://polish.musicsources.pl/pl/lokalizacje/galeria/rekopisy/6322 @EN{Scan on Polish Music Sources Website} @PL{Skany w portalu Dziedzictwo Muzyki Polskiej w otwartym dostępie}
!!!ONB-nifc:
!!!AIN: 1 piano 1 soprn
!!!key:
**kern	**kern	**dynam	**kern	**text	**text	**text	**text	**dynam
*part2	*part2	*part2	*part1	*part1	*part1	*part1	*part1	*part1
*staff3	*staff2	*	*staff1	*staff1	*staff1	*staff1	*staff1	*
*Ipiano	*Ipiano	*	*Isoprn	*	*	*	*	*
*I"[Piano]	*I"[Piano]	*	*I"[Soprano]	*	*	*	*	*
*>[A,A,A,A,B]	*>[A,A,A,A,B]	*	*>[A,A,A,A,B]	*	*	*	*	*
*>A	*>A	*	*>A	*	*	*	*	*
*clefF4	*clefG2	*	*clefG2	*	*	*	*	*
*k[]	*k[]	*	*k[]	*	*	*	*	*
*C:	*C:	*	*C:	*	*	*	*	*
*M4/4	*M4/4	*	*M4/4	*	*	*	*	*
*met(c)	*met(c)	*	*met(c)	*	*	*	*	*
*2\right	*2\right	*	*	*	*	*	*	*
!	!LO:TX:t=P:problem= all\right&colon; global	!	!LO:TX:t=[segno]	!	!	!	!	!
!	!LO:TX:t=[segno]	!	!	!	!	!	!	!
!!LO:TX:a:t=Allegro moderato.
8r	(16b\LL	.	16r	.	.	.	.	.
.	16dd\	.	8r	.	.	.	.	.
16r	16ff\JJ	.	.	.	.	.	.	.
=1	=1	=1	=1	=1	=1	=1	=1	=1
!LO:TX:t=P:problem= all\right&colon; global	!	!	!	!	!	!	!	!
2.G\ 2.B 2.f	4aa\	.	1r	.	.	.	.	.
.	16aa\LL	.	.	.	.	.	.	.
.	16gg\	.	.	.	.	.	.	.
.	16ff\	.	.	.	.	.	.	.
.	16ee\JJ	.	.	.	.	.	.	.
.	4dd\)	.	.	.	.	.	.	.
4r	16r	.	.	.	.	.	.	.
.	(16g/LL	.	.	.	.	.	.	.
.	16cc/	.	.	.	.	.	.	.
.	16ee/JJ)	.	.	.	.	.	.	.
=2	=2	=2	=2	=2	=2	=2	=2	=2
2.C\ 2.E 2.G 2.c	([4aa\	.	1r	.	.	.	.	.
.	16aa\LL]	.	.	.	.	.	.	.
.	16gg\	.	.	.	.	.	.	.
.	16ee\	.	.	.	.	.	.	.
.	16dd\JJ	.	.	.	.	.	.	.
.	4cc\)	.	.	.	.	.	.	.
4r	4r	.	.	.	.	.	.	.
=3	=3	=3	=3	=3	=3	=3	=3	=3
2F\ 2A 2d	([4a/	.	1r	.	.	.	.	.
.	16a/LL]	.	.	.	.	.	.	.
.	16b/	.	.	.	.	.	.	.
.	16cc/	.	.	.	.	.	.	.
.	16dd/JJ)	.	.	.	.	.	.	.
2G\ 2c 2e	(4g/	.	.	.	.	.	.	.
.	4cc\	.	.	.	.	.	.	.
=4	=4	=4	=4	=4	=4	=4	=4	=4
2G\ 2d 2f	8cc/L	.	2r	.	.	.	.	.
.	8b/	.	.	.	.	.	.	.
.	8a/	.	.	.	.	.	.	.
.	8b/J)	.	.	.	.	.	.	.
2r	2r	.	4r	.	.	.	.	.
.	.	.	8.e/	1.) Nie-	2.) Wi-	3.) Kie-	4.) A	.
.	.	.	16f/	-chaj	-tam	-dy	jak	.
!!LO:LB:g=original
=5	=5	=5	=5	=5	=5	=5	=5	=5
4CC/ 4C	4r	p	4g/	so-	was,	sta-	chło-	.
4rAA	4G</ 4c 4e	.	8b/L	-bie	wy	-nę	-pak	.
.	.	.	8cc/J	.	.	.	.	.
4CC/ 4C	4r	.	4.a/	kto	stro-	pod	nasz	.
4rAA	4A</ 4c 4f	.	.	.	.	.	.	.
.	.	.	8f/	chce	-me	Pia-	o-	.
=6	=6	=6	=6	=6	=6	=6	=6	=6
4CC/ 4C	4r	.	4g/	chwa-	gó-	-sko-	-cho-	.
4rAA	4G</ 4c 4e	.	4e/	-li	-ry,	-wą,	-czy	.
4.C\	4.e/ 4.cc	.	4.cc\	Że	Czar-	Spoj-	Jak	.
8E\	8g/ 8b	.	8b\	w ob-	-ne	-rzę	znać	.
=7	=7	=7	=7	=7	=7	=7	=7	=7
*^	*^	*	*	*	*	*	*	*
2ryy	4F\	4f/ 4a	2ryy	.	4a/	-czyz-	gro-	na	du-	.
.	4E\	4A</ 4c#X 4g	.	.	4g/	-nie	-ty,	cud-	-szę	.
4A/	4D\	4.f/	2d\	.	4.f/	wszy-	na-	-ną	pra-	.
4G/	4BB\	.	.	.	.	.	.	.	.	.
.	.	8g/	.	.	8g/	-stko	-gie	do-	-wie	.
*v	*v	*	*	*	*	*	*	*	*	*
=8	=8	=8	=8	=8	=8	=8	=8	=8	=8
4C\	4c/ 4e	4.G</	.	4e/	cu-	ska-	-li-	in-	.
8GG\	8B/ 8d	.	.	4d/	-dem,	-ły,	-nę,	-ną,	.
*clefG2	*	*	*	*	*	*	*	*	*
(16f#X/LL	(16ff#X\LL	8ryy	.	.	.	.	.	.	.
16a/JJ	16aa\JJ	.	.	.	.	.	.	.	.
4g/)	4gg\)	2ryy	.	4r	.	.	.	.	.
.	.	.	.	.	.	.	.	.	.
4ryy	4r	.	.	8.e/	Niech	Sę-	Na	Kie-	.
.	.	.	.	16f/	tam	-pne	zwa-	-dy	.
*	*v	*v	*	*	*	*	*	*	*
*clefF4	*	*	*	*	*	*	*	*
!!LO:LB:g=original
=9	=9	=9	=9	=9	=9	=9	=9	=9
4CC/ 4C	4r	.	4g/	bie-	jo-	-lis-	ost-	.
4rAA	4G</ 4c 4e	.	(8b\L	-gną	-dły,	-ka	-ro	.
.	.	.	8cc\J)	.	.	.	.	.
4GGG/ 4GG	4r	.	4.ee\	ser-	lo-	po	tan	.
4rAA	4G</ 4B 4f	.	.	.	.	.	.	.
.	.	.	8dd\	-ca	-tne	nad	za-	.
=10	=10	=10	=10	=10	=10	=10	=10	=10
4CC/ 4C	4r	.	4dd\	z sta-	chmu-	gło-	-to-	.
4rAA	4G</ 4c 4e	.	4cc\	-li,	-ry,	-wą,	-czy	.
4FF\ 4F	4r	.	4a/	Mnie	Swiad-	Smę-	Z swą	.
4rAA	4A</ 4d 4f	.	(8cc#X\L	naj-	-ki	-tno	dziew-	.
.	.	.	8dd\J)	.	.	.	.	.
=11	=11	=11	=11	=11	=11	=11	=11	=11
4GG\ 4G	4r	.	4ccn\	-mi-	zga-	myś-	-czy-	.
4rAA	4G</ 4c 4e	.	4cc\	-lej	-słej	-lo	-ną	.
!	!	!	!	!	!	!	!	!LO:DY:a
4GG\ 4G	4r	.	4.b\	z na-	dzia-	w prze-	ho-	<
4rAA	4G</ 4B 4d	.	.	.	.	.	.	.
.	.	.	8b\	-szym	-dów	-szłość	-żą,	[[
=12	=12	=12	=12	=12	=12	=12	=12	=12
*	*^	*	*	*	*	*	*	*
!	!	!	!	!	!	!	!	!	!LO:DY:a
2GG#X^\ 2G#X	8r	8ryy	.	(4.ee\	lu-	chwa-	pły-	zwin-	>
.	(8e/L	8B\	.	.	.	.	.	.	.
.	8e/	4B\	.	.	.	.	.	.	.
.	8d/J	.	.	8dd\)	.	.	.	.	.
4AA\ 4A	4c/)	4ryy	.	4cc\	-dem.	-ły,	-nę,	-ną	]
!	!LO:TUP:b:problem:problem=klamra łukowa	!	!	!LO:TUP:a:problem=brak klamry, numer	!	!	!	!	!
4FF\ 4F	12A/L	4ryy	.	12a	Mnie	Swiad-	Smę-	Z swą	.
.	12e/	.	.	(12ee\L	naj-	-ki	-tno	dzie-	.
.	12d/J	.	.	12dd\J)	.	.	.	.	.
*	*v	*v	*	*	*	*	*	*	*
!!LO:LB:g=original
=13	=13	=13	=13	=13	=13	=13	=13	=13
*^	*	*	*	*	*	*	*	*
4GG/	4GG\	4G</ 4c 4e	.	8cc\	-mi-	zga-	myś-	-czy-	.
.	.	.	.	8g/	-lej	-słej	-lo	-ną	.
4r	4ryy	4r	.	8f#X/	z na-	dzia-	w prze-	ho-	.
.	.	.	.	8g/	-szym	-dów	-szłość	-żą,	.
2GGG\ 2GG	2ryy	2G</ 2B 2f	.	(4.ee\	lu-	chwa-	pły-	zwin-	.
.	.	.	.	8dd\)	.	.	.	.	.
*v	*v	*	*	*	*	*	*	*	*
=14	=14	=14	=14	=14	=14	=14	=14	=14
4CC\ 4C	4G</ 4c 4e	.	4cc\	-dem	-ły,	-nę,	-ną,	.
8r	8r	.	4r	.	.	.	.	.
*clefG2	*	*	*	*	*	*	*	*
(16b\LL	(16bb\LL	.	.	.	.	.	.	.
16dd\JJ	16ddd\JJ	.	.	.	.	.	.	.
4cc\)	4ccc\)	.	4r	.	.	.	.	.
4r	4r	.	8cc\	Cho-	Przy	Wie-	Gdy	.
.	.	.	8cc\	-ciasz	po-	-ki	po	.
*clefF4	*	*	*	*	*	*	*	*
=15	=15	=15	=15	=15	=15	=15	=15	=15
2CC/ 2C	8r	.	4.dd\	z Bo-	-god-	snu-	rę-	.
.	8d/L 8f#X 8dd	.	.	.	.	.	.	.
.	8d/ 8f# 8dd	.	.	.	.	.	.	.
.	8d/J 8f# 8dd	.	8dd\	-giem	-nem	-ią	-ki	.
2CC/ 2C	8r	.	4.a/	gdzies	jas-	się	u-	.
.	8d/L 8f# 8a	.	.	.	.	.	.	.
.	8d/ 8f# 8a	.	.	.	.	.	.	.
.	8d/J 8f# 8a	.	8a/	tam	-nem	za	-ści-	.
=16	=16	=16	=16	=16	=16	=16	=16	=16
2BBB/ 2BB	8r	.	(4.dd\	ro-	Nie-	wie-	-snie-	.
.	8d/L 8g 8dd	.	.	.	.	.	.	.
.	8d/ 8g 8dd	.	.	.	.	.	.	.
.	8d/J 8g	.	8g/)	.	.	.	.	.
2BBB/ 2BB	8r	.	4g/	-sną	-bie	-kiem,	-niu,	.
.	8d/L 8g	.	.	.	.	.	.	.
.	8d/ 8g	.	8g/	Po-	Wy-	Bu-	Lu-	.
.	8d/J 8g	.	8g/	-ma-	.	-rze	-ba	.
!!LO:PB:g=original
=17	=17	=17	=17	=17	=17	=17	=17	=17
*	*	*	*^	*	*	*	*	*
2CC/ 2C	8r	.	[4a/	4ryy	-rań-	-pły-	czczą	spoj-	.
.	8e/L 8a	.	.	.	.	.	.	.	.
.	8e/ 8a	.	8a/]	8a\	.	-wasz	tych	-rzy	.
.	8e/J 8a	.	8a/	8a\	-cze	jak	.	.	.
2CC#X/ 2C#X	8r	.	4.a/	4.ryy	i	ze	gór	nań	.
.	8e/L 8a	.	.	.	.	.	.	.	.
.	8e/ 8a	.	.	.	.	.	.	.	.
.	8e/J 8g	.	8g/	8ryy	kasz-	mgły	ko-	ser-	.
*	*	*	*v	*v	*	*	*	*	*
=18	=18	=18	=18	=18	=18	=18	=18	=18
4DD/ 4D	8r	.	4f#X/	-ta-	sza-	-ro-	-decz-	.
.	8d/L 8f#X	.	.	.	.	.	.	.
4r	8d/ 8f# 8a	.	4a/	-ny,	-rej,	-nę;	-nie,	.
.	8d/J 8f# 8a	.	.	.	.	.	.	.
4DD/ 4D	8r	.	4r	.	.	.	.	.
.	8d/L 8f#	.	.	.	.	.	.	.
4r	8d/ 8f# 8a	.	8.a/	Jam	Oj-	Co	To	.
.	8d/J 8f# 8a	.	.	.	.	.	.	.
.	.	.	16a/	szczę-	-ców	wzniosł	po	.
=19	=19	=19	=19	=19	=19	=19	=19	=19
4CC#X/ 4C#X	8r	.	4b/	-śli-	na-	czło-	jed-	.
.	8e/L 8g 8b	.	.	.	.	.	.	.
4r	8e/ 8g 8a	.	4a/	-wy	-szych	-wiek,	-nem	.
.	8e/J 8g 8a	.	.	.	.	.	.	.
4CC#/ 4C#	8r	.	4.a/	z na-	gro-	pad-	tem	.
.	8e/L 8a	.	.	.	.	.	.	.
4r	8e/ 8a	.	.	.	.	.	.	.
.	8e/J 8g	.	8g/	-szą	-dzie	-ło	spój-	.
=20	=20	=20	=20	=20	=20	=20	=20	=20
4DD/ 4D	8r	.	4f#X/	sos-	sta-	z człe-	-rze-	.
.	8d/L 8f#X	.	.	.	.	.	.	.
4r	8d/ 8f# 8a	.	4a/	-ną	-ry,	-kiem,	-niu,	.
.	8d/J 8f# 8a	.	.	.	.	.	.	.
2CCn/ 2Cn	8r	.	4.dd\	Mo-	Ser-	Co	Mó-	.
.	8d/L 8f# 8dd	.	.	.	.	.	.	.
.	8d/ 8f# 8dd	.	.	.	.	.	.	.
.	8d/J 8f#	.	8f#/	-ja	-cem	Bóg	-wi	.
!!LO:LB:g=original
=21	=21	=21	=21	=21	=21	=21	=21	=21
2BBB/ 2BB	8r	.	4.dd\	roz-	sy-	stwo-	śmia-	.
.	8d/L 8g 8dd	.	.	.	.	.	.	.
.	8d/ 8g 8dd	.	.	.	.	.	.	.
.	8d/J 8g	.	8g/	-kosz	-na	-rzył	-ło:	.
4AAA/ 4AA	8r	.	4cc\	dach	wi-	nie	mo-	.
.	8e/ 8a 8cc	.	.	.	.	.	.	.
4CC/ 4C	8r	.	4a/	sło-	-tam	wzru-	-ja	.
.	8c/ 8e 8a	.	.	.	.	.	.	.
=22	=22	=22	=22	=22	=22	=22	=22	=22
4DD/ 4D	4r	f	2dd\	-mia-	cie-	-szo-	wiecz-	.
4DD/ 4D	4a\ 4cc 4dd 4ff#X	.	.	.	.	.	.	.
4GG/ 4G	4b\ 4dd 4gg	.	4g/	-ny.	-bie.	-ne!	-nie;	.
*clefG2	*	*	*	*	*	*	*	*
8e/L 8g#X 8b	(16bb\LL	p	4r	.	.	.	.	.
.	16ccc\	.	.	.	.	.	.	.
8e/J 8g# 8b	16bb\	.	.	.	.	.	.	.
.	16ee\JJ)	.	.	.	.	.	.	.
=23	=23	=23	=23	=23	=23	=23	=23	=23
8a/L 8cc	(16ccc\LL	.	2r	.	.	.	.	.
.	16ddd\	.	.	.	.	.	.	.
8a/J 8cc	16ccc\	.	.	.	.	.	.	.
.	16aa\JJ)	.	.	.	.	.	.	.
8e/L 8g#X 8b	8bb'\L	.	.	.	.	.	.	.
.	(>8qddd#X/	.	.	.	.	.	.	.
8e/J 8b	8eee\J)	.	.	.	.	.	.	.
8a\L 8cc	8ccc'\L	.	4r	.	.	.	.	.
8a\J 8cc	8aa'\J	.	.	.	.	.	.	.
*clefF4	*	*	*	*	*	*	*	*
8EE/ 8E	8r	.	8b/	Kie-	Wi-	Gdy	Niech	.
8r	8B/ 8e 8g#X	.	8e/	-dy	-tam	po-	więc	.
!!LO:LB:g=original
=24	=24	=24	=24	=24	=24	=24	=24	=24
8AA\ 8A	8r	.	8cc\	drze-	łą-	-dej-	so-	.
8r	8c/ 8e 8a	.	8a/	-wa	-ki	-dę	-bie	.
8EE/ 8E	8r	.	8b\	Maj	czy-	do	kto	.
8r	8B/ 8e 8g#X	.	8ee\	zie-	-ste	Gro-	chce	.
8AA\ 8A	8r	.	8cc\	-le-	wo-	-dzis-	chwa-	.
8r	8c/ 8e 8a	.	8a/	-ni,	-dy,	-ka,	-li	.
*clefG2	*	*	*	*	*	*	*	*
8d/L 8f#X 8a	(16aa\LL	.	4r	.	.	.	.	.
.	16bb\	.	.	.	.	.	.	.
8d/J 8f# 8a	16aa\	.	.	.	.	.	.	.
.	16dd\JJ)	.	.	.	.	.	.	.
=25	=25	=25	=25	=25	=25	=25	=25	=25
8g/L 8b	(16bb\LL	.	2r	.	.	.	.	.
.	16ccc\	.	.	.	.	.	.	.
8g/J 8b	16bb\)	.	.	.	.	.	.	.
.	16gg\JJ	.	.	.	.	.	.	.
8d/L 8f#X 8a	8aa'\L	.	.	.	.	.	.	.
.	(8qccc#X/	.	.	.	.	.	.	.
8d/J 8f# 8a	8ddd\J)	.	.	.	.	.	.	.
8g/L 8b	8bb\L	.	4r	.	.	.	.	.
8g/J 8b	8gg\J	.	.	.	.	.	.	.
*clefF4	*	*	*	*	*	*	*	*
8DD/ 8D	8r	.	8a/	Zgra-	wi-	Do	Ze	.
8r	8A/ 8d 8f#X	.	8d/	-ią	-tam	ko-	w ob-	.
=26	=26	=26	=26	=26	=26	=26	=26	=26
8GG\ 8G	8r	.	8b\	iedź	kwiat	-ścioł-	-czyź-	.
8r	8B/ 8d 8g	.	8dd\	do	co	-ka	-nie	.
8DD/ 8D	8r	.	8dd\	ob-	się	Sa-	wszyst-	.
8r	8A/ 8d 8f#X	.	8a/	-cych	uś-	-lo-	-ko	.
8GG\ 8G	8B/ 8d 8g	.	16b\	zdro-	-mie-	-me-	cu-	.
.	.	.	16b\	-wa;	-cha,	-i,	-dem;	.
8r	8r	.	8r	.	.	.	.	.
!	!	!	!	!	!	!	!	!LO:DY:a
8.G\L	8.g/L	<	8.g/	Ja	Wi-	Każ-	Niech	<
16F#X\Jk	16a/Jk	[[	16a/	do	-tam	-dy	tam	[[
!!LO:LB:g=original
=27	=27	=27	=27	=27	=27	=27	=27	=27
*	*	*	*^	*	*	*	*	*
!	!	!LO:HP:t=cresc:	!	!	!	!	!	!	!
8.Fn\L	8.g/L 8.b	<	8.b\L	2ryy	cud-	drzew-	ból	spie-	.
16E\Jk	16g/Jk 16cc	.	16cc\Jk	.	-nych	-ko	co	-szą	.
8D\L	8g\L 8b 8dd	.	8dd\L	.	skał	wdzięk	pierś	ser-	.
8C\J	8g\J 8cc 8ee	.	8ee\J	.	stru-	przy-	u-	-ca	.
[4BB/	4g\ 4dd 4ff	[ f	4ff\	4ryy	-mie-	-ro-	-cis-	z sta-	.
8BB/]	8g\ 8dd	.	8dd\	8ryy	-ni	-dy;	-ka,	-li	.
8BBB/ 8BB	8g\ 8dd	.	16dd/	8dd\	Do	Wszę-	Zni-	Mnie	.
.	.	.	16dd/	.	.	-dzie	-ka	naj-	.
=28	=28	=28	=28	=28	=28	=28	=28	=28	=28
!	!LO:TX:b:t=miléj	!	!	!	!	!	!	!	!
4CC/ 4C	8g/L 8cc 8ee	.	4ee\	2ryy	Oj-	spo-	w mod-	-mi-	.
.	8g/J 8cc 8ee	.	.	.	.	.	.	.	.
4AA\ 4A	8r	.	4cc\	.	-ców	-kój	-łach	-léj	.
.	8e/ 8cc	.	.	.	.	.	.	.	.
4FF/ 4F	8r	.	8a/	4a\	na-	serc	i	z na-	.
.	8f/ 8a	.	8a/	.	-szych	.	.	.	.
4GG\ 4G	8r	.	4b\	4ryy	Oj-	po-	na-	-szym	.
.	8d/ 8f 8b	.	.	.	.	.	.	.	.
*	*	*	*v	*v	*	*	*	*	*
=29	=29	=29	=29	=29	=29	=29	=29	=29
8r	2f/ 2g 2dd	.	2dd\	-co-	-cie-	-dzie-	lu-	.
(16FF#X/LL	.	.	.	.	.	.	.	.
16GG/JJ	.	.	.	.	.	.	.	.
16GG#X/LL	.	.	.	.	.	.	.	.
16AA/	.	.	.	.	.	.	.	.
16AA#X/	.	.	.	.	.	.	.	.
16BB/JJ	.	.	.	.	.	.	.	.
4C/)	4e/ 4g 4cc	.	4cc\	-wa.	-cha.	-i.	-dem.	.
16r	16r	.	16r	.	.	.	.	.
!	!LO:TX:a:t=[segno]	!	!LO:TX:a:t=[segno]	!	!	!	!	!
==	==	==	==	==	==	==	==	==
*>B	*>B	*	*>B	*	*	*	*	*
*	*	*	*	*	*	*	*	*
16r	(16b\LL	.	16r	.	.	.	.	.
8r	16dd\	.	8r	.	.	.	.	.
.	16ff\JJ	.	.	.	.	.	.	.
!!LO:PB:g=original
=30	=30	=30	=30	=30	=30	=30	=30	=30
2.G\ 2.B 2.f	[4aa\	.	1r	.	.	.	.	.
.	16aa\LL]	.	.	.	.	.	.	.
.	16gg\	.	.	.	.	.	.	.
.	16ff\	.	.	.	.	.	.	.
.	16ee\JJ	.	.	.	.	.	.	.
.	4dd\)	.	.	.	.	.	.	.
4r	16r	.	.	.	.	.	.	.
.	(<16g/LL	.	.	.	.	.	.	.
.	16cc/	.	.	.	.	.	.	.
.	16ee/JJ	.	.	.	.	.	.	.
=31	=31	=31	=31	=31	=31	=31	=31	=31
2.C\ 2.E 2.G 2.c	([4aa\)	.	1r	.	.	.	.	.
.	16aa\LL]	.	.	.	.	.	.	.
.	16gg\	.	.	.	.	.	.	.
.	16ee\	.	.	.	.	.	.	.
.	16dd\JJ	.	.	.	.	.	.	.
.	4cc\)	.	.	.	.	.	.	.
4r	4r	.	.	.	.	.	.	.
=32	=32	=32	=32	=32	=32	=32	=32	=32
2F\ 2A 2d	(4a/	.	1r	.	.	.	.	.
.	16a/LL	.	.	.	.	.	.	.
.	16b/	.	.	.	.	.	.	.
.	16cc/	.	.	.	.	.	.	.
.	16dd/JJ	.	.	.	.	.	.	.
2G\ 2c 2e	4g/)	.	.	.	.	.	.	.
.	(4cc\	.	.	.	.	.	.	.
=33	=33	=33	=33	=33	=33	=33	=33	=33
2G\ 2d 2f	8cc\L	.	1r	.	.	.	.	.
.	8b\	.	.	.	.	.	.	.
.	8a\	.	.	.	.	.	.	.
.	8b\J)	.	.	.	.	.	.	.
2c\ 2e	(16cc\LL	.	.	.	.	.	.	.
.	16dd\	.	.	.	.	.	.	.
.	16ee\	.	.	.	.	.	.	.
.	16ff\JJ	.	.	.	.	.	.	.
.	4gg\	.	.	.	.	.	.	.
!!LO:LB:g=original
=34	=34	=34	=34	=34	=34	=34	=34	=34
2F\ 2A 2d	(4a/)	.	1r	.	.	.	.	.
.	16a/LL	.	.	.	.	.	.	.
.	16b/	.	.	.	.	.	.	.
.	16cc/	.	.	.	.	.	.	.
.	16dd/JJ)	.	.	.	.	.	.	.
2G\ 2c 2e	4g/	.	.	.	.	.	.	.
.	(4cc\	.	.	.	.	.	.	.
=35	=35	=35	=35	=35	=35	=35	=35	=35
2G\ 2d 2f	8cc\L	.	1r	.	.	.	.	.
.	8b\	.	.	.	.	.	.	.
.	8a\	.	.	.	.	.	.	.
.	8b\J	.	.	.	.	.	.	.
4c\ 4e	4cc\)	.	.	.	.	.	.	.
4r	4r	.	.	.	.	.	.	.
==	==	==	==	==	==	==	==	==
*-	*-	*-	*-	*-	*-	*-	*-	*-
!!!system-decoration: s1{(s2,s3)}
!!!RDF**kern: > = above
!!!RDF**kern: < = below
!!!ENC: Berenika Jozajtis
!!!END: 2021-05-23
